X: 6
T: Willafjord
R: reel
M: 4/4
L: 1/8
K: Dmaj
V:1
|"D"A2FA- ADFA|"G"B2GB- BDGB|"D"A2FA- ADFA|"Em"EFGA "A7"GFED|
V:2
|f2 df fAdf|g2 dg gBdg|f2 df fAdf|gfef edcA|
V:3
|d2 Ad dFAd|d2 Bd dGBd|d2 Ad dFAd|edcd cB A2|
V:1
"D"A2 FA ADFA|"G"B2 GB- BDGB|"D/A"ABcd "A7"efge|"D"f2 "G"d2 "D"d2:||
V:2
f2 df- fAdf|g2 dg gBde|fgaf gABc|d2 G2 F2:||
V:3
d2 Ad dFAd|d2 Bd dGBd|A4 Bcde|d2 B2 A2:||
V:1
"D"f2 df- fAdf|"G"ge"D"af "Em"gf"A7"ed|"D"f2 df fAdf|"Em"edcB "A7"ABce|
V:2
A2 FA ADFA|BGFA BAGF|A2 FA ADFA|GFEG AGEG|
V:3
d2 Ad dFAd|d2 d2 d2 A2|d2 Ad dFAd|BAGB cdeA|
V:1
"D"f2 df fAdf|"G"ge"D"af "Em"gfed|"A7"ABcd efge|"D"f2 "G"d2 "D"d2:||
V:2
A2 FA ADFA|BGFA BAGF|A2 GF GABc|d2 G2 F2:||
V:3
d2 Ad dFAd|d2 d2 d2 B2|cdeA Bcde|d2 B2 A2:||


Tune 292	Setting 13045

